!!!!SEGMENT: pl-wn--mus-57--001-004_sowinski-wojciech--messe-breve-sanctus.krn
!!!cenid: 18xx:3575
!!!COM: Sowiński, Wojciech
!!!COM-rismID: pe30008543
!!!CDT: ~1803-1880/03/05
!!!CNT: Polish
!!!OPR: Messe Breve
!!!OTL: Sanctus
!!!OMV: 004
!!!PDT: 1872
!!!AGN: Sacred; Mass
!!!YEC: Copyright 2022 Narodowy Instytut Fryderyka Chopina (https://polishscores.org)
!!!YEM: License CC-BY-4.0 (https://creativecommons.org/licenses/by/4.0)
!!!SMS-siglum: PL-Wn
!!!SMS-shelfmark: Mus.57
!!!SMS-shelfwork: 001-004 M
!!!SMS-variant:
!!!SMS-altvar:
!!!NIFC-rismSourceID:
!!!NIFC-rismChildID:
!!!NIFC-islandoraID: none
!!!URL-pdf-islandora:
!!!URL-scan: https://polona2.pl/item/messe-breve-a-deux-voix-egales-avec-accompagnement-d-orgue-composee-pour-l-eglise-de,NDI0MDY1OTQ/1 @EN{Scan on Polona} @PL{Skany w portalu Polona}
!!!IIIF: https://polona2.pl/iiif/item/NDI0MDY1OTQ/manifest.json
!!!ONB-nifc: UWAGA: części Mszy: 1. Kyrie, 2. Gloria, 3. Credo, 4. Sanctus, 5. Benedictus, 6. Agnus Dei
!!!OMD: Allegro non troppo
!!!AIN: 1 bass 1 organ 1 tenor
!!!key: B-
**kern	**kern	**dynam	**kern	**text	**dynam	**kern	**text	**dynam
*part3	*part3	*	*part2	*	*	*part1	*	*
*staff4	*staff3	*	*staff2	*	*	*staff1	*	*
*I"Orgue	*I"Orgue	*	*I"Basse	*	*	*I"Tenor ou Bariton	*	*
*Iorgan	*Iorgan	*	*Ibass	*	*	*Itenor	*	*
*ICklav	*ICklav	*	*ICvox	*	*	*ICvox	*	*
*	*	*	*	*	*	*ITrd8c12	*	*
*clefF4	*clefG2	*	*clefF4	*	*	*clefG2	*	*
*k[b-e-]	*k[b-e-]	*	*k[b-e-]	*	*	*k[b-e-]	*	*
*B-:	*B-:	*	*B-:	*	*	*B-:	*	*
*M4/4	*M4/4	*	*M4/4	*	*	*M4/4	*	*
*met(c)	*met(c)	*	*met(c)	*	*	*met(c)	*	*
*all\right	*all\right	*	*all\right	*	*	*all\right	*	*
=1	=1	=1	=1	=1	=1	=1	=1	=1
*xywh-19:29,1484,5346,1232	*xywh-19:29,1484,5346,1232	*	*xywh-19:38,929,5224,659	*	*	*xywh-19:20,17,5303,972	*	*
!	!LO:TX:a:t=All° non troppo	!	!	!	!	!LO:TX:a:t=All° non troppo	!	!
2BBB-/ 2BB-	4.B-/ 4.b-	f	1ryy	.	.	1ryy	.	.
.	8d/ 8f	.	.	.	.	.	.	.
4BB-\ 4B-	2d/ 2f	.	.	.	.	.	.	.
4AA-X\ 4A-X	.	.	.	.	.	.	.	.
=2	=2	=2	=2	=2	=2	=2	=2	=2
*2\right	*	*	*	*	*	*	*	*
[>2GG\ [>2G	4.B-/ 4.e- 4.b-	.	1ryy	.	.	1ryy	.	.
.	8B-/ 8e-	.	.	.	.	.	.	.
4GG\] 4G]	2B-/ 2e-	.	.	.	.	.	.	.
4GG-X\ 4G-X	.	.	.	.	.	.	.	.
=3	=3	=3	=3	=3	=3	=3	=3	=3
2FF/ 2F	4.B-/ 4.b-	<	1ryy	.	.	1ryy	.	.
.	8B-/ 8d	.	.	.	.	.	.	.
4DD/ 4D	[>2d/ [>2f	[[	.	.	.	.	.	.
4BBB-/ 4BB-	.	.	.	.	.	.	.	.
=4	=4	=4	=4	=4	=4	=4	=4	=4
2FFF/ 2FF	4d/] 4f]	.	1ryy	.	.	1ryy	.	.
.	4b-^<\ 4dd	.	.	.	.	.	.	.
2r	4c^</ 4e-	.	.	.	.	.	.	.
.	4a^<\ 4cc	.	.	.	.	.	.	.
=5	=5	=5	=5	=5	=5	=5	=5	=5
*	*2\right	*	*2\right	*	*	*2\right	*	*
!	!	!	!	!	!LO:DY:a	!	!	!LO:DY:a
2BBB-/ 2BB-	2..d\ 2..b-	f	(2..BB-\	San-	f	(2..B-\	Sanc-	f
4DD/ 4D	.	.	.	.	.	.	.	.
4FF/ 4F	.	.	.	.	.	.	.	.
.	8d\ 8f	.	8D\)	.	.	8F/)	.	.
=6	=6	=6	=6	=6	=6	=6	=6	=6
4BB-\ 4B-	2.d/ 2.f	.	2D\	-ctus	.	2F/	-tus	.
4FF\ 4F	.	.	.	.	.	.	.	.
4DD\ 4D	.	.	2r	.	.	2r	.	.
4BBB-\ 4BB-	8.f/L	.	.	.	.	.	.	.
.	16f/Jk	.	.	.	.	.	.	.
=7	=7	=7	=7	=7	=7	=7	=7	=7
2AAA\ 2AA	2..c\ 2..f 2..cc	sf	(2..AA/	San-	.	(2..c\	Sanc-	.
4CC\ 4C	.	.	.	.	.	.	.	.
4FF\ 4F	.	.	.	.	.	.	.	.
.	8c/ 8f	.	8F\)	.	.	8F/)	.	.
!!LO:LB:g=original
=8	=8	=8	=8	=8	=8	=8	=8	=8
*xywh-19:-6,3775,5337,1180	*xywh-19:-6,3775,5337,1180	*	*xywh-19:46,3194,5259,659	*	*	*xywh-19:29,2586,5329,694	*	*
4AA\ 4A	2.c/ 2.f	sf	2F\	-ctus	.	2F/	-tus	.
4FF\ 4F	.	.	.	.	.	.	.	.
4CC\ 4C	.	.	2r	.	.	2r	.	.
4AAA\ 4AA	8.f/L	.	.	.	.	.	.	.
.	16f/Jk	.	.	.	.	.	.	.
=9	=9	=9	=9	=9	=9	=9	=9	=9
2BBB-\ 2BB-	2..d\ 2..f 2..dd	sf	(2..BB-/	San-	.	(2..d\	Sanc-	.
4DD\ 4D	.	.	.	.	.	.	.	.
4FF\ 4F	.	.	.	.	.	.	.	.
.	8d\ 8b-	.	8D\)	.	.	8B-\)	.	.
=10	=10	=10	=10	=10	=10	=10	=10	=10
2BB-\ 2B-	2d/ 2f	f	2BB-/	-ctus	.	2F/	-tus	.
2BBB-/ 2BB-	4f^^\ 4dd	.	4F^\	Do-	.	4d^\	Do-	.
.	8.e-\L 8.cc	.	8.E-\	.	.	8.c\	.	.
.	16d\Jk 16b-	.	16D\	-mi-	.	16B-\	mi-	.
=11	=11	=11	=11	=11	=11	=11	=11	=11
2CC/ 2C	2c\ 2a	.	2C\	-nus	.	2A\	-nus	.
2C\ 2c	4.en\ 4.cc	sf	(4.C\	De-	.	(4.c\	De-	.
.	8g\ 8b-	.	8En\)	.	.	8B-\)	.	.
=12	=12	=12	=12	=12	=12	=12	=12	=12
4F\	2f\ 2a	<	2F\	-us	.	2A\	-us	.
4c\	.	[	.	.	.	.	.	.
4A\	4r	>	4r	.	.	4r	.	.
!	!	!	!	!	!	!	!	!LO:HP:a
4F\	8.f/L	.	8.F\	Do-	.	8.F/	Do-	<
.	16f/Jk	]	16F\	-mi-	.	16F/	-mi-	.
=13	=13	=13	=13	=13	=13	=13	=13	=13
*	*^	*	*	*	*	*	*	*
4EE-\ 4E-	4g^^>/	2.ryy	.	4E-\	-nus	.	4G/	-nus	.
8.C\L	(>8.g\L 8.ee-	.	>	(8.C^\L	De-	.	(8.e-^\L	De-	[
16D\Jk	16b-\Jk) 16dd	.	.	16D\Jk)	.	.	16d\Jk)	.	.
4E-\	4g\ 4cc	.	]	4E-\	-us	.	4c\	-us	.
4FF\ 4F	8.b-/L	4c\ 4e-	sf	8.F\	Sa-	.	8.B-\	Sa-	.
.	16a/Jk	.	.	16F\	-ba-	.	16A\	-ba-	.
*	*v	*v	*	*	*	*	*	*	*
!!LO:LB:g=original
=14	=14	=14	=14	=14	=14	=14	=14	=14
*xywh-19:12,6015,5355,1371	*xywh-19:12,6015,5355,1371	*	*xywh-19:20,5485,5294,642	*	*	*xywh-19:20,4886,5320,703	*	*
4BB-\ 4F	4.d/ 4.b-	.	2BB-/	-oth	.	2B-\	-oth	.
4r	.	.	.	.	.	.	.	.
.	(>8f/	<	.	.	.	.	.	.
2r	8en/L	.	2r	.	.	2r	.	.
.	8f/	[	.	.	.	.	.	.
.	8g/	>	.	.	.	.	.	.
.	8f/J)	]]	.	.	.	.	.	.
=15	=15	=15	=15	=15	=15	=15	=15	=15
2.BBB-\ 2.BB-	4d/ 4f	p	4BB-\	Ple-	.	4F/	Ple-	.
.	(8.f\L 8.dd	.	8.F\	-ni	.	8.d\	-ni	.
.	16e-X\Jk 16cc	.	16E-\	sunt	.	16c\	sunt	.
.	4d\) 4b-	.	4D\	coe-	.	4B-\	coe-	.
4EE-^^\ 4E-	4c^^>\ 4g 4cc	.	4E-\	-li	.	4c\	-li	.
=16	=16	=16	=16	=16	=16	=16	=16	=16
*	*^	*	*	*	*	*	*	*
2FF\ 2F	4b-/	2c\ 2f	.	2F\	et	.	4B-\	et	.
.	8a/L	.	.	.	.	.	(8A\L	ter-	.
.	8g/J	.	.	.	.	.	8G\J)	.	.
4FF\ 4F	2f^</	2ryy	.	4F\	ter-	.	2F/	-ra	.
4EE-\ 4E-	.	.	.	4E-\	-ra	.	.	.	.
=17	=17	=17	=17	=17	=17	=17	=17	=17	=17
4DD\ 4D	4f/	2ryy	.	4D\	glo-	.	4F/	glo-	.
8.E-\L	8.g/L	.	<	(8.E-\L	.	.	(>8.G/L	.	.
16C\Jk	16a/Jk	.	.	16C\Jk)	.	.	16A/Jk)	.	.
4D\	4b-/	4f\	[	4D\	-ri-	.	4B-\	-ri-	.
4C\	4cc/	4en\	.	4En\	-a	.	4c\	-a	.
=18	=18	=18	=18	=18	=18	=18	=18	=18	=18
2FF\ 2F	4b-/	4c\ 4f	.	2F\	tu-	.	(>4B-\	tu-	.
.	8.a/L	4ryy	.	.	.	.	8.A\L	.	.
.	16cc/Jk	.	.	.	.	.	16c\Jk)	.	.
4FF\ 4F	(>8f\L 8ff	2ryy	.	4F\	-a	.	4F/	-a	.
.	8ee-X\	.	.	.	.	.	.	.	.
4r	8cc\	.	.	4r	.	.	4r	.	.
.	8a\J)	.	.	.	.	.	.	.	.
*	*v	*v	*	*	*	*	*	*	*
=19	=19	=19	=19	=19	=19	=19	=19	=19
!	!	!LO:DY:b:rj	!	!	!	!	!	!
2.BBB-\ 2.BB-	4f/	p	4BB-\	Ple-	.	4F/	Ple-	.
.	8.f\L 8.dd	>	(8.F\L	-ni	.	(8.d\L	-ni	.
.	16e-\Jk 16cc	.	16E-\Jk)	sunt	.	16c\Jk)	.	.
.	4d\ 4b-	.	(4D\	coe-	.	(4B-\	sunt	.
4EE-^^>\ 4E-	4c^^>\ 4g 4cc	]	4E-\)	-li	.	4c\)	.	.
=20	=20	=20	=20	=20	=20	=20	=20	=20
*	*^	*	*	*	*	*	*	*
2FF\ 2F	4b-^^>/	2c\ 2e-	.	2F\	et	.	4B-\	coe-	.
.	8.a/L	.	.	.	.	.	8.A/	-li	.
.	16g/Jk	.	.	.	.	.	16G/	et	.
4FF\ 4F	4f/	2f\	<	4F\	ter-	.	4F/	ter-	.
4EE-\ 4E-	8.g/L	.	.	4E-\	-ra	.	(>8.G/L	-ra	.
.	16a/Jk	.	[[	.	.	.	16A/Jk)	.	.
!!LO:PB:g=original
=21	=21	=21	=21	=21	=21	=21	=21	=21	=21
*	*	*	*	*	*	*	*^	*	*
*xywh-20:23,1425,5355,1234	*xywh-20:23,1425,5355,1234	*xywh-20:23,1425,5355,1234	*	*xywh-20:58,921,5329,660	*	*	*xywh-20:136,156,5225,912	*xywh-20:136,156,5225,912	*	*
4DD\ 4D	(8b-/L	4f\	<	4D\	glo-	.	(8B-\L	2ryy	glo-	.
.	8a/	.	[	.	.	.	8A\J)	.	.	.
4EE-\ 4E-	8g/	4ryy	>	8E-\	-ri-	.	8G\	.	-ri-	.
.	8cc/J)	.	]	8C\	-a	.	8c\	.	-a	.
4FF\ 4F	4d^<\ 4f 4b-	2ryy	.	2F\	tu-	.	(4B-/	4B-\	tu-	.
4FF\ 4F	4c^<\ 4f 4a	.	.	.	.	.	4A/)	4A\	.	.
*	*v	*v	*	*	*	*	*v	*v	*	*
=22	=22	=22	=22	=22	=22	=22	=22	=22
2BBB-/ 2BB-	4d\ 4b-	.	2BB-/	-a	.	2B-\	-a	.
!	!	!LO:DY:b	!	!	!	!	!	!
.	4f\	f	.	.	.	.	.	.
2r	4b-\ 4dd	.	2r	.	.	2r	.	.
.	4f^^>/	.	.	.	.	.	.	.
=23	=23	=23	=23	=23	=23	=23	=23	=23
2FF\ 2F	2c\ 2f 2a 2cc	f	1r	.	.	1r	.	.
4FF\ 4F	4d\ 4f 4b-	.	.	.	.	.	.	.
4EE-\ 4E-	4c\ 4f 4a	.	.	.	.	.	.	.
=24	=24	=24	=24	=24	=24	=24	=24	=24
*	*^	*	*	*	*	*	*	*
4DD/ 4D	4f\ 4b-	4ryy	.	1r	.	.	2r	.	.
4CC/ 4C	4a/	8f\L	.	.	.	.	.	.	.
.	.	8e-\J	.	.	.	.	.	.	.
4BBB-/ 4BB-	4b-/	4d\	.	.	.	.	4r	.	.
4r	4r	4ryy	.	.	.	.	4F/	Ho-	.
=25	=25	=25	=25	=25	=25	=25	=25	=25	=25
2.FF\ 2.F	4r	4ryy	.	2r	.	.	2c^\	-san-	.
.	(>4a/	2f\	mf	.	.	.	.	.	.
.	4b-/	.	.	4r	.	.	4B-\	-na	.
4FF\ 4F	4cc/	8f\L	.	4F\	Ho-	.	8A\	in	.
.	.	8e-\J	.	.	.	.	8A\	ex-	.
=26	=26	=26	=26	=26	=26	=26	=26	=26	=26
4BB-\	4dd/	4d\	.	(4B-\	-san-	.	4B-\	-cel-	.
4F\	4cc/	4e-\	.	4F\)	.	.	4c\	.	.
4BB-\	4b-/	4d\	.	4D\	-na	.	4d\	-sis	.
4r	8f/L	4ryy	.	4F\	ho-	.	4r	.	.
.	8g/J	.	.	.	.	.	.	.	.
=27	=27	=27	=27	=27	=27	=27	=27	=27	=27
2.FF\ 2.F	(>4a\)	2a/	.	2c\	-san-	.	2r	.	.
.	8g-X\L	.	<	.	.	.	.	.	.
.	8f\J	.	.	.	.	.	.	.	.
.	8en\L	2ryy	.	4B-\	-na	.	4r	.	.
.	8f\	.	.	.	.	.	.	.	.
4FF\ 4F	8a\	.	.	8A\	in	.	8c\	in	.
.	8cc\J)	.	[[	8F\	ex-	.	8A\	ex-	.
*	*v	*v	*	*	*	*	*	*	*
!!LO:LB:g=original
=28	=28	=28	=28	=28	=28	=28	=28	=28
*xywh-20:15,3712,5364,1243	*xywh-20:15,3712,5364,1243	*	*xywh-20:67,3138,5329,712	*	*	*xywh-20:67,2512,5286,782	*	*
[2BB-\	8b-\L	<	(4D\	-cel-	.	(4B-\	-cel-	.
.	8f\	.	.	.	.	.	.	.
.	(8g\	.	4E-\)	.	.	8G\L	.	.
.	8a\J	[	.	.	.	8A\J)	.	.
4BB-\]	8b-\L	>	4D\	-sis	.	4B-\	-sis	.
.	8cc\	.	.	.	.	.	.	.
4r	8dd\	.	4r	.	.	4r	.	.
.	8b-\J)	]	.	.	.	.	.	.
=29	=29	=29	=29	=29	=29	=29	=29	=29
!	!	!	!	!	!LO:DY:a	!	!	!LO:DY:a
2.BBB-/ 2.BB-	4d\ 4f	p	(>4BB-/	Ple-	p	(4F/	Ple-	p
.	(8f\L 8dd	.	8F\L	.	.	8d\L	.	.
.	8e-\J 8cc	.	8E-\J)	.	.	8c\J)	.	.
.	4d\) 4b-	.	4D\	-ni	.	4B-\	-ni	.
4EE-\ 4E-	4c\ 4g 4cc	.	4E-^\	sunt	.	4c^\	sunt	.
=30	=30	=30	=30	=30	=30	=30	=30	=30
*	*^	*	*	*	*	*	*	*
2.FF\ 2.F	4b-^/	2c\ 2f	.	4F\	coe-	.	4B-^\	coe-	.
.	8a/L	.	.	8F\	-li	.	8A\	-li	.
.	8g/J	.	.	8F\	et	.	8G\	et	.
.	4f/	2f\	.	4F\	ter-	.	4F/	ter-	.
4EE-^^\ 4E-	8g/L	.	.	4E-\	-ra	.	8G/L	-ra	.
.	8a/J	.	.	.	.	.	8A/J	.	.
=31	=31	=31	=31	=31	=31	=31	=31	=31	=31
4DD\ 4D	4f/ 4b-	4ryy	.	8D\	glo-	.	8B-\	Glo-	.
.	.	.	.	8D\	-ri-	.	8B-\	-ri-	.
2EE-\ 2E-	2cc/	2e-\ 2g	sf	(4E-\	-a	.	[>4c^\	-a	.
.	.	.	.	4C\)	.	.	4c\]	.	.
4FF\ 4F	4a/	8f\L	.	(8F\L	tu-	.	4A\	tu-	.
.	.	8e-\J	.	8E-\J)	.	.	.	.	.
=32	=32	=32	=32	=32	=32	=32	=32	=32	=32
2BB-\ 2F	4.b-/	4.d\	.	2D\	-a	.	2B-\	-a	.
.	8d'>/	8ryy	.	.	.	.	.	.	.
2r	8e-'>/L	2ryy	<	4r	.	.	4r	.	.
.	8f'>/	.	.	.	.	.	.	.	.
.	8g'>/	.	.	4F\	Ho-	.	4F/	ho-	.
.	8a'>/J	.	[	.	.	.	.	.	.
*	*v	*v	*	*	*	*	*	*	*
=33	=33	=33	=33	=33	=33	=33	=33	=33
!	!	!	!	!	!LO:DY:a:rj	!	!	!LO:DY:a:rj
2BBB-/ 2BB-	2..d/ 2..b-	[ f	(2..BB-/	-san-	f	(2..B-\	-san-	f
4DD/ 4D	.	.	.	.	.	.	.	.
4FF/ 4F	.	.	.	.	.	.	.	.
.	8d/ 8f	.	8D\)	.	.	8F/)	.	.
!!LO:LB:g=original
=34	=34	=34	=34	=34	=34	=34	=34	=34
*xywh-20:23,5972,5329,1373	*xywh-20:23,5972,5329,1373	*	*xywh-20:84,5390,5277,730	*	*	*xywh-20:23,4642,5355,808	*	*
4BB-\ 4B-	2.d/ 2.f	.	2D\	-na	.	2F/	-na	.
4FF\ 4F	.	.	.	.	.	.	.	.
4DD\ 4D	.	.	4r	.	.	4r	.	.
4BBB-\ 4BB-	8.f/L	.	8F\	in	.	8F/	in	.
.	.	.	8F\	ex-	.	8F/	ex-	.
.	16f/Jk	.	.	.	.	.	.	.
=35	=35	=35	=35	=35	=35	=35	=35	=35
2AAA\ 2AA	2.c/ 2.f 2.cc	f	(2..AA/	-cel-	.	(2..c^^\	-cel-	.
4CC\ 4C	.	.	.	.	.	.	.	.
4FF\ 4F	8.f/L	.	.	.	.	.	.	.
.	.	.	8F\)	.	.	8F/)	.	.
.	16f/Jk	.	.	.	.	.	.	.
=36	=36	=36	=36	=36	=36	=36	=36	=36
4AA\ 4A	2.c/ 2.f	sf	2F\	-sis	.	2F/	-sis	.
4FF\ 4F	.	.	.	.	.	.	.	.
4CC\ 4C	.	.	4r	.	.	4r	.	.
4AAA\ 4AA	8.f/L	.	4F\	ho-	.	4F/	ho-	.
.	16f/Jk	.	.	.	.	.	.	.
=37	=37	=37	=37	=37	=37	=37	=37	=37
!	!LO:TX:b:i:t=elargissant	!	!	!	!LO:DY:a:rj	!LO:TX:a:i:t=Elargissant	!	!LO:DY:a
4BBB-/ 4BB-	2.d^>\ 2.f 2.dd	.	(2.BB-/	-san-	f	(2.d\	-san-	f
4DD/ 4D	.	.	.	.	.	.	.	.
4FF/ 4F	.	.	.	.	.	.	.	.
4FFF/ 4FF	4e-\ 4f 4a 4cc	sf	4F\)	.	.	4c\)	.	.
=38	=38	=38	=38	=38	=38	=38	=38	=38
2..BBB-;/ 2..BB-	2..d;\ 2..f 2..b-	.	2BB-;/	-na	.	2B-;\	-na	.
.	.	.	2r	.	.	2r	.	.
(>32F\LLL	(>32f/LLL	f	.	.	.	.	.	.
32E-\	32e-/	.	.	.	.	.	.	.
32D\	32d/	.	.	.	.	.	.	.
32C\JJJ)	32c/JJJ)	.	.	.	.	.	.	.
=||39	=||39	=||39	=||39	=||39	=||39	=||39	=||39	=||39
2BB-;\	2B-;/	.	1ryy	.	.	1ryy	.	.
2ryy	2ryy	.	.	.	.	.	.	.
==-	==-	==	==	==	==	==	==	==
*-	*-	*-	*-	*-	*-	*-	*-	*-
!!!system-decoration: (s1),(s2){(s3,s4)}
!!!RDF**kern: < = below
!!!RDF**kern: > = above
!!!ENC: Berenika Jozajtis
!!!END: 2022-02-05
!!!ENC: Marta Chmielewska
!!!END: 2022-02-14
!!!ENC-iiif: Jan Barakat
!!!END-iiif: 2022-08-19
